X:1
T:Grave
T:Grave, Sonata K. 90
T:Grave
T:from Sonata K. 90 arr. for Flute and Viola 
T:Domenico Scarlatti (1685-17857)
T:Arrangement by Felix Scharpf
T:twoflutes 2019 / https://commons.wikimedia.org/wiki/File:Turner,_J._M._W._-_The_Grand_Canal_-_Venice.jpg
T:twoflutes 2019 / https://commons.wikimedia.org/wiki/File:Turner,_J._M._W._-_The_Grand_Canal_-_Venice.jpg
T:twoflutes 2019 / https://commons.wikimedia.org/wiki/File:Turner,_J._M._W._-_The_Grand_Canal_-_Venice.jpg
C:Domenico Scarlatti (1685-17857)
Z:twoflutes 2019 / https://commons.wikimedia.org/wiki/File:Turner,_J._M._W._-_The_Grand_Canal_-_Venice.jpg
%%score [ 1 2 ]
L:1/8
Q:1/8=79
M:4/4
K:G
V:1 treble nm="Flute"
V:2 alto nm="Viola"
V:1
!p! eE z!mp! g (f/4e/4^d/)e (=d/4c/4B/)Pc | (B/4^d/4f3/2- f>)c (B/4A/4G/)A (G/4F/4E/)PF | %2
 E2 z B (c/d/4e/4) e2 (d/^c/) | (d/4f/4a3/2- a>)(c B/4c/<d/)(c/4B/) (A/4B/<c/)(B/4A/) | %4
 (B/4c/<d/)(c/4B/) (e/4f/<g/)(f/4e/) (d/4f/4a3/2- a>)c | (B/4A/4B/)(c/4B/4A/) (BMA) gG z g | %6
 (f/4e/4d/)e (d/4c/4B/)c (PcB) z B | (^c/4d/4)e/-e/4f/4g/- g/4f/4e/-e/4d/4c/ dD z e | %8
 (^d/4e/4)f/-f/4g/4a/- a/4g/4f/-f/4e/4f/ (g/4f/4)e3/2- eg | %9
 (f/4e/4d/)^A/B/- B(d/4e/4f/) (e/4d/4)^c/^G/^A/- A(c/4d/4e/) | %10
 (d/4e/4f/-f/4)(e/4d/) (^c/4d/4e/-e/4)(d/4c/) (d/4e/4f/-f/4)(e/4d/) (PcB) | %11
 (^A/4B/4)^c/-c/4d/4e/- e/4f/4g/-g/4f/4e/ (d/4c/4d/)(e/4d/4c/) (dPc) | %12
 (B/4^d/4 f7/2) (^G/4B/4 =d7/2) | (^c/4e/4 g7/2) (F/4A/4 =c7/2) | %14
 (B/4c/<d/)(c/4B/) (A/4B/<c/)(B/4A/) (B/4c/4 d7/2) | %15
 (c/4d/<e/)(d/4c/) (B/4c/<d/)(c/4B/) (c/4d/4 e7/2) | %16
 (^d/4e/<f/)(e/4d/) (^c/4d/<e/)(d/4c/) (d/4e/4 f3) g/ | %17
 (f/4e/4^d/)e (=d/4c/4B/)c (B/4^d/4)f3/2- f<c | (B/^c/4^d/4)(e/f/) (Pf>e) e4 | %19
 (c/4d/4 e7/2) (B/4^c/4^d/ e3) | (d/4c/4B/)c (PB^A) (B/4^d/4 f7/2) | %21
 (G/4B/4e3/2) (A/4^d/4f3/2) (G/4B/4e3/2-) ec | (B/4A/4B/)(c/4B/4A/) (PG3/2F/4E/4) d4 | %23
 (c/4d/4 e7/2) (^A/4^c/4 e7/2) | (^d/4f/4 a7/2) (g/4f/4g/)(a/4g/4f/) (gPf) | (e3 g) (f2 e2) | %26
!p! (^d/4e/4)f3/2- f(F!>(! G>)A (PA3/2G/4A/4)!>)! |!pp! B6 z2 |] %28
V:2
!p! E,(E/!mp!F/) (GE) (Bc)(^GA) | ^D(cBA G)(CB,A, | G,)E,EG (AGFE | FED)(F G)(B,CD) | %4
 G,(B,C)E (FED)F | G(CD)D G(G,/A,/) B,G, | (dc) (BA/G/) (FG/F/ G)G, | (A,A)(AG F)D(dc | %8
 B)B,B(^D EFG)E | (D^CD)B, (CB,)CF, | B,(DEF) (B,DE)G | (FF,)(F^A,) B,(EF)F, | (B,^C^DB,) (EF^GE) | %13
 (A,B,^CA,) (DEFD) | G(B,CD) (G=FE)^G | A(CDE) (AGF^A) | B(^DEF) (BB,)(BE) | (Bc)(^GA) ^D(cBA | %18
 G)(cB)B, (EFGE) | (AA,)(A,A) (GG,)(G,G) | (FE^D^C B,)(CD)B, | E(GA)B E(GA)(A | %22
 G)(AB,)(B, E)(F^G)E | (AA,)(AG) (F^G^AF) | (B^c^dB) (eA)(BB,) | (EFGE) (ABcA) | %26
!p! (BB,^C^D)!>(! (E=D =C2!>)! |!pp! B,2)!ppp! B,4 z2 |] %28

